!!!OTL-incipit: Die Kauernburger Lena, die hot so gutn Schnupftabak
!!!ARE: Europa, Mitteleuropa, Deutschland, Ober - Franken, Foelschnitz
!!!SCT: V0005B
!!!TXL: @@BAR
!!!YEM: Copyright 1995, estate of Helmut Schaffrath.
**kern	**text
*ICvox	*
*M2/4	*
*k[]	*
*C:	*
{8c	Die
=1	=1
8c	Kau-
8e	-ern-
8g	-bur-
8cc	-ger
=2	=2
4g	Le-
8.e}	-na,
{16e	die
=3	=3
8g	hot
8f	so
8f	gu-
8f	-tn
=4	=4
8.a	Schnupf-
16g	-ta-
8g}	-bak,
{8c	da
=5	=5
8c	kriegt
8e	ma
8g	um
8cc	a
=6	=6
8.g	Zeh-
16e	-ner-
8e}	-la
{8g	an
=7	=7
8g	rech-
8f	-tn
8f	gro-
8g	-ßn
=8	=8
4e	Pack.
4r}	.
==	==
!!!AGN: Geselligkeits - Lied, Scherz
!!!ONB: ESAC (Essen Associative Code) Database: VARIANT
!!!AMT: simple duple
!!!AIN: vox
!!!EED: Helmut Schaffrath
!!!EEV: 1.0
!!!source: Heigl, U.; Liertz, M. J. et al.: Registeer un Beispielsammlung zu den Forschungsexkursionen des Instituts für Volkskunde nach Oberfranken. Maschinenschriftliches Manuskript, München 1982.
!!!page: 100
!!!ENC: Anna Maria Matuszewska
!!!EEV: 2025/04/01
*-	*-
